assets/logo.svg

<svg width="66" height="44" viewBox="0 0 66 44" fill="none" xmlns="http://www.w3.org/2000/svg">
<path d="M57.2793 43.7513H66L40.0361 9.24033L35.6757 15.0175L57.2793 43.7513Z" fill="white"/>
<path d="M18.8288 36.7578L23.9819 43.9033H32.7027L22.991 31.1327L18.8288 36.7578Z" fill="white"/>
<path d="M39.8378 43.7513H49.3513L31.7117 20.7947L27.3513 26.5718L39.8378 43.7513Z" fill="#F76B0A"/>
<path d="M0 43.9033H12.2883V42.535H12.0901H9.31531L37.063 5.43955L33.0991 0.270508L0 43.9033Z" fill="#F76B0A"/>
</svg>

<svg width="66" height="44" fill="none" xmlns="http://www.w3.org/2000/svg"><path d="M57.28 43.751H66L40.036 9.241l-4.36 5.777L57.279 43.75ZM18.829 36.758l5.153 7.145h8.72l-9.711-12.77-4.162 5.625Z" fill="#fff"/><path d="M39.838 43.751h9.513l-17.64-22.956-4.36 5.777 12.487 17.18ZM0 43.903h12.288v-1.368H9.315L37.063 5.44 33.099.27 0 43.904Z" fill="#F76B0A"/></svg>
